src/images/advantage-icon-2.svg

<svg fill="none" height="32" viewBox="0 0 40 32" width="40" xmlns="http://www.w3.org/2000/svg"><path d="m25 17.5h9v-3h-9zm0-6h9v-3h-9zm-19 12.5h16v-.95c0-1.4-.7083-2.5417-2.125-3.425s-3.375-1.325-5.875-1.325-4.45833.4417-5.875 1.325-2.125 2.025-2.125 3.425zm7.996-8.7c1.0027 0 1.8623-.357 2.579-1.071s1.075-1.5723 1.075-2.575-.357-1.86233-1.071-2.579-1.5723-1.075-2.575-1.075-1.8623.357-2.579 1.071-1.075 1.5723-1.075 2.575.357 1.8623 1.071 2.579 1.5723 1.075 2.575 1.075zm-10.996 16.7c-.8 0-1.5-.3-2.1-.9s-.9-1.3-.9-2.1v-26c0-.8.3-1.5.9-2.1s1.3-.9 2.1-.9h34c.8 0 1.5.3 2.1.9s.9 1.3.9 2.1v26c0 .8-.3 1.5-.9 2.1s-1.3.9-2.1.9zm0-3h34v-26h-34z" fill="#fcc241"/></svg>

<svg width="40" height="32" viewBox="0 0 40 32" fill="none" xmlns="http://www.w3.org/2000/svg">
<path d="M25 17.5H34V14.5H25V17.5ZM25 11.5H34V8.5H25V11.5ZM6 24H22V23.05C22 21.65 21.2917 20.5083 19.875 19.625C18.4583 18.7417 16.5 18.3 14 18.3C11.5 18.3 9.54167 18.7417 8.125 19.625C6.70833 20.5083 6 21.65 6 23.05V24ZM13.996 15.3C14.9987 15.3 15.8583 14.943 16.575 14.229C17.2917 13.515 17.65 12.6567 17.65 11.654C17.65 10.6513 17.293 9.79167 16.579 9.075C15.865 8.35833 15.0067 8 14.004 8C13.0013 8 12.1417 8.357 11.425 9.071C10.7083 9.785 10.35 10.6433 10.35 11.646C10.35 12.6487 10.707 13.5083 11.421 14.225C12.135 14.9417 12.9933 15.3 13.996 15.3ZM3 32C2.2 32 1.5 31.7 0.9 31.1C0.3 30.5 0 29.8 0 29V3C0 2.2 0.3 1.5 0.9 0.9C1.5 0.3 2.2 0 3 0H37C37.8 0 38.5 0.3 39.1 0.9C39.7 1.5 40 2.2 40 3V29C40 29.8 39.7 30.5 39.1 31.1C38.5 31.7 37.8 32 37 32H3ZM3 29H37V3H3V29Z" fill="#FCC241"/>
</svg>
